svg/black/ada.svg

<svg xmlns="http://www.w3.org/2000/svg" width="32" height="32" viewBox="0 0 32 32">
  <path fill-rule="evenodd" d="M16,32 C7.163444,32 0,24.836556 0,16 C0,7.163444 7.163444,0 16,0 C24.836556,0 32,7.163444 32,16 C32,24.836556 24.836556,32 16,32 Z M15.724719,6.05915178 C15.3348539,6.21199115 15.2359034,6.76721019 15.5393516,7.04811879 C15.8257584,7.34081755 16.3864781,7.2387083 16.5343541,6.85471695 C16.7889868,6.38365151 16.2039693,5.81328915 15.724719,6.05915178 Z M10.5699463,6.60582566 C10.164689,6.71204524 10.1197215,7.33995221 10.5128849,7.48976292 C10.8096265,7.65082296 11.2308259,7.40139083 11.1999313,7.06250495 C11.2296165,6.75033621 10.8610808,6.48792409 10.5699463,6.60582566 Z M21.1275275,7.49928158 C21.4382322,7.57748602 21.6684571,7.32978456 21.7397015,7.05925995 C21.6900063,6.74244005 21.3783122,6.4367613 21.038582,6.59976833 C20.600561,6.74146655 20.672575,7.44519829 21.1275275,7.49928158 Z M11.7428399,8.76428969 C11.2870078,8.99360284 11.2243391,9.67775643 11.6379523,9.97597168 C12.0657484,10.3556364 12.8239293,10.0302713 12.8492167,9.46867044 C12.9240893,8.9124779 12.2295665,8.46142328 11.7428399,8.76428969 Z M19.1730348,9.08565259 C18.9015805,9.62248331 19.4492167,10.2356796 20.0257684,10.1297846 C20.4610408,9.98797817 20.7615206,9.47148277 20.5172227,9.05439245 C20.2700663,8.51842707 19.3901762,8.53508472 19.1730348,9.08565259 Z M15.1039693,10.0985244 C15.0779124,10.4852199 15.358712,10.8010663 15.6921752,10.9621264 C15.9103062,10.9749982 16.1471277,11.016426 16.3474476,10.9059879 C16.7854686,10.7153984 17.0007409,10.1436299 16.7583122,9.72837839 C16.6282472,9.42735081 16.2977524,9.30025508 15.994524,9.24043896 C15.5373726,9.2726726 15.0992417,9.62529564 15.1039693,10.0985244 Z M7.43805229,10.7880863 C7.05049606,10.9639652 6.99618322,11.5550955 7.33888187,11.8009582 C7.65992135,12.0633703 8.22152055,11.8961448 8.31420421,11.4851118 C8.48253005,11.009936 7.88266998,10.5191842 7.43805229,10.7880863 Z M23.8995715,10.787221 C23.5124551,11.0210771 23.554564,11.6453065 23.9669678,11.8276753 C24.3414406,12.0476861 24.8796215,11.7254579 24.8543341,11.2981999 C24.8993017,10.8296223 24.2767929,10.4990652 23.8995715,10.787221 Z M17.2597714,11.6379511 C16.4838894,11.8699684 16.0242092,12.796307 16.3397514,13.5364909 C16.6176925,14.3633162 17.716593,14.7473075 18.4691667,14.2943059 C19.1954636,13.9112881 19.4444891,12.8947386 18.9764531,12.2272426 C18.6216605,11.6812178 17.8822802,11.4179403 17.2597714,11.6379511 Z M13.6073976,11.7107472 C12.8720853,12.0338408 12.5337844,12.9868965 12.9147439,13.6885731 C13.2544741,14.4141545 14.2448589,14.7115044 14.9468579,14.3192924 C15.6479773,13.970347 15.9512057,13.0292978 15.5590318,12.353473 C15.2257884,11.6591518 14.2973027,11.3903578 13.6073976,11.7107472 Z M9.95029616,12.9408175 C9.84859701,13.4554741 10.3154236,13.9766207 10.8478874,13.9315152 C11.3318654,13.9342194 11.6847889,13.4950631 11.714694,13.0457391 C11.6651088,12.5918722 11.3009708,12.2435758 10.8451387,12.1894925 C10.4220703,12.2189138 10.0027399,12.5035001 9.95029616,12.9408175 Z M20.7521752,12.2845709 C20.1652887,12.5568262 20.1212007,13.457313 20.686648,13.7770534 C21.2309858,14.1610447 22.0710758,13.6997142 22.0335845,13.0450901 C22.0578824,12.4272426 21.2988219,11.9715369 20.7521752,12.2845709 Z M12.1210508,14.591764 C11.2542442,14.7979295 10.7459683,15.847578 11.1644191,16.6308121 C11.528557,17.4852199 12.7903961,17.7365991 13.474584,17.1105309 C14.0080373,16.6837056 14.1484371,15.8752686 13.8049688,15.2933324 C13.4914056,14.7151821 12.7603811,14.4186975 12.1210508,14.591764 Z M19.048577,14.588519 C18.1752837,14.8237813 17.7128549,15.9138841 18.1724251,16.6852199 C18.5515156,17.4309203 19.618642,17.6813259 20.3075575,17.2044195 C20.9652487,16.793711 21.1761232,15.8434676 20.7343641,15.2063665 C20.4002412,14.6493086 19.6700963,14.4136137 19.048577,14.588519 Z M8.00899681,15.3153984 C7.47928167,15.4627213 7.32195034,16.2186975 7.74688787,16.5584487 C8.11003629,16.9202659 8.8130248,16.7388705 8.94968647,16.2481188 C9.1734246,15.7094492 8.56125069,15.1098819 8.00899681,15.3153984 Z M22.9780123,16.0971183 C23.0697065,16.3070696 23.1810808,16.5262151 23.3982222,16.6348143 C23.8615305,16.8861934 24.5168029,16.5225374 24.4821702,15.9875455 C24.5120753,15.5824617 24.1443092,15.2822994 23.7660983,15.2233486 C23.2968529,15.248227 22.9620703,15.646929 22.9780123,16.0971183 Z M5.29357452,15.5796493 C5.01937163,15.7026347 4.89953155,16.0704011 5.09974144,16.3089084 C5.32633814,16.6523373 5.94312975,16.4943059 5.96094084,16.0832729 C6.03680291,15.7202659 5.6258284,15.4369776 5.29357452,15.5796493 Z M26.2428299,15.5714287 C25.8535146,15.7757554 26.0061183,16.4829484 26.4777824,16.4406553 C26.8137744,16.4903038 27.1020503,16.0879241 26.9448289,15.7942518 C26.8521452,15.5253497 26.4767929,15.4075563 26.2428299,15.5714287 Z M13.9256885,17.5444952 C13.2722852,17.6835974 12.7677474,18.2949549 12.7696165,18.9527159 C12.7471877,19.640439 13.2899863,20.2960366 13.9817604,20.4056093 C14.876713,20.6123157 15.8023401,19.8186975 15.7452787,18.9237272 C15.7397814,18.0380593 14.7999713,17.3208067 13.9256885,17.5444952 Z M17.3880773,17.5426564 C16.8619903,17.6712664 16.4164931,18.0978754 16.3002812,18.6224833 C16.0700563,19.4097197 16.6784921,20.3010122 17.5030798,20.4059338 C18.3793416,20.5801902 19.2760533,19.8132892 19.2292167,18.9348684 C19.2432897,18.028757 18.2754436,17.2986326 17.3880773,17.5426564 Z M10.7123251,18.0878159 C10.048587,18.1540139 9.69852205,19.0305958 10.1674376,19.5100982 C10.5671977,20.0093952 11.4713856,19.8435758 11.6530148,19.2323265 C11.9020403,18.6587191 11.3263681,17.9847332 10.7123251,18.0878159 Z M20.8662982,18.1147494 C20.204539,18.3216721 20.0941542,19.3142086 20.700611,19.651472 C21.2360433,20.0271345 22.0657984,19.583327 22.0438094,18.9397359 C22.0859184,18.3550955 21.4138244,17.8891139 20.8662982,18.1147494 Z M23.7044191,20.9153984 C23.8494366,21.3131269 24.4541342,21.407989 24.7210808,21.0755931 C24.9176625,20.8960366 24.8689568,20.6180485 24.8399313,20.3850577 C24.698542,20.2414125 24.5440693,20.0701848 24.3231897,20.0738624 C23.8794516,20.0010663 23.4900263,20.5222129 23.7044191,20.9153984 Z M7.43618322,20.183327 C7.04115074,20.38138 7.02707777,21.0000928 7.40891685,21.2173995 C7.76469896,21.4567721 8.30485888,21.2156688 8.35444409,20.7938192 C8.44767747,20.3168046 7.85089586,19.9117207 7.43618322,20.183327 Z M15.6292867,21.0663989 C14.9750038,21.2725644 14.876713,22.2587191 15.4663481,22.5939273 C15.9971627,22.9843005 16.852645,22.5341112 16.8124051,21.8840301 C16.8638594,21.2957121 16.1721952,20.830704 15.6292867,21.0663989 Z M11.834534,21.9373562 C11.5087669,22.0570966 11.3759533,22.4106932 11.3702362,22.7281621 C11.4816105,23.0194546 11.7080973,23.3257824 12.0554136,23.3331377 C12.4747439,23.3949008 12.8894566,23.0386001 12.8753836,22.6205363 C12.9174926,22.1113962 12.2969628,21.6979836 11.834534,21.9373562 Z M19.5212307,21.9447115 C19.0569328,22.1777024 19.004599,22.8820831 19.4332747,23.1751064 C19.8760233,23.54893 20.6398114,23.1844087 20.6276075,22.6153443 C20.672575,22.0708338 19.9967429,21.6555823 19.5212307,21.9447115 Z M20.8579423,25.1958743 C21.0750838,25.5614774 21.7088069,25.430704 21.7490468,25.0044195 C21.8070978,24.6894384 21.5150838,24.4851118 21.2389019,24.4298386 C20.8954336,24.5016612 20.6464081,24.8810014 20.8579423,25.1958743 Z M10.2470378,24.9224292 C10.2773826,25.2805688 10.6748339,25.591764 11.0174226,25.364506 C11.3983821,25.1655877 11.2691967,24.5201577 10.8339243,24.4897629 C10.5353137,24.424863 10.3312557,24.6728889 10.2470378,24.9224292 Z M15.3661882,25.2087462 C15.2139144,25.5817045 15.5795915,26.0325428 15.9849588,25.9858148 C16.2030898,25.9913313 16.3715255,25.838492 16.50258,25.6856526 C16.5280873,25.5825698 16.5540343,25.4793789 16.5830598,25.3762962 C16.5287469,25.1783513 16.4669578,24.9454687 16.2554236,24.8561231 C15.9352637,24.6600171 15.4495265,24.8395736 15.3661882,25.2087462 Z"/>
</svg>

<svg xmlns="http://www.w3.org/2000/svg" width="32" height="32"><path fill-rule="evenodd" d="M16 32C7.163 32 0 24.837 0 16S7.163 0 16 0s16 7.163 16 16-7.163 16-16 16zm-.275-25.94c-.39.152-.49.707-.186.988.287.293.847.19.995-.193.255-.471-.33-1.042-.81-.796zm-5.155.546c-.405.106-.45.734-.057.884.297.16.718-.089.687-.427.03-.313-.339-.575-.63-.457zm10.558.893c.31.078.54-.17.612-.44-.05-.317-.362-.622-.701-.46-.438.142-.366.846.089.9zm-9.385 1.265c-.456.23-.519.914-.105 1.212.428.38 1.186.054 1.211-.507.075-.557-.62-1.008-1.106-.705zm7.43.322c-.271.536.276 1.15.853 1.044.435-.142.736-.659.491-1.076-.247-.536-1.127-.519-1.344.032zm-4.069 1.013c-.026.386.255.702.588.863.218.013.455.054.655-.056.438-.19.654-.762.411-1.178-.13-.3-.46-.428-.763-.488-.458.033-.896.385-.891.859zm-7.666.69c-.388.175-.442.766-.1 1.012.322.262.884.095.976-.316.169-.475-.431-.966-.876-.697zm16.462-.002c-.388.234-.345.858.067 1.04.374.22.913-.102.887-.529.045-.468-.577-.799-.954-.51zm-6.64.851c-.776.232-1.236 1.158-.92 1.898.278.827 1.377 1.211 2.13.758.725-.383.974-1.4.506-2.067-.354-.546-1.094-.81-1.716-.589zm-3.653.073c-.735.323-1.073 1.276-.692 1.978.34.725 1.33 1.023 2.032.63.701-.349 1.004-1.29.612-1.966-.333-.694-1.262-.963-1.952-.642zM9.95 12.94c-.101.514.365 1.036.898.99.484.003.837-.436.867-.885a.978.978 0 0 0-.87-.857c-.423.03-.842.315-.895.752zm10.802-.656c-.587.272-.63 1.172-.065 1.492.544.384 1.384-.077 1.347-.732.024-.618-.735-1.073-1.282-.76zm-8.63 2.307c-.868.206-1.376 1.256-.958 2.039.365.854 1.626 1.106 2.31.48.534-.427.674-1.236.331-1.818-.314-.578-1.045-.874-1.684-.701zm6.927-.003c-.874.235-1.336 1.325-.877 2.096.38.746 1.447.996 2.136.52.657-.411.868-1.362.426-1.999-.334-.557-1.064-.792-1.685-.617zm-11.04.726c-.53.148-.687.904-.262 1.243.363.362 1.066.18 1.203-.31.223-.539-.389-1.138-.941-.933zm14.969.782c.092.21.203.43.42.538.464.251 1.119-.112 1.084-.647.03-.406-.338-.706-.716-.765a.836.836 0 0 0-.788.874zM5.294 15.58c-.275.123-.394.49-.194.729.226.343.843.185.86-.226.077-.363-.334-.646-.666-.503zm20.949-.009c-.39.205-.237.912.235.87.336.05.624-.353.467-.647-.093-.269-.468-.386-.702-.223zm-12.317 1.973c-.654.14-1.158.751-1.156 1.409-.023.687.52 1.343 1.212 1.453.895.206 1.82-.587 1.763-1.482-.005-.886-.945-1.603-1.82-1.38zm3.462-.001c-.526.128-.972.555-1.088 1.08-.23.787.378 1.678 1.203 1.783.876.174 1.773-.593 1.726-1.471.014-.906-.954-1.636-1.84-1.392zm-6.676.545c-.663.066-1.013.943-.545 1.422.4.5 1.304.334 1.486-.278.249-.573-.327-1.247-.94-1.144zm10.154.027c-.661.207-.772 1.2-.165 1.536.535.376 1.365-.068 1.343-.711.042-.585-.63-1.05-1.178-.825zm2.838 2.8c.145.398.75.493 1.017.16.197-.179.148-.457.119-.69-.141-.144-.296-.315-.517-.311-.444-.073-.833.448-.619.841zm-16.268-.732c-.395.198-.409.817-.027 1.034.356.24.896-.001.945-.423.094-.477-.503-.882-.918-.61zm8.193.883c-.654.207-.752 1.193-.163 1.528.531.39 1.387-.06 1.346-.71.052-.588-.64-1.053-1.183-.818zm-3.794.871c-.326.12-.459.474-.465.791.112.291.338.598.685.605.42.062.834-.294.82-.712.042-.51-.578-.923-1.04-.684zm7.686.008c-.464.233-.516.937-.088 1.23.443.374 1.207.01 1.195-.56.045-.544-.631-.96-1.107-.67zm1.337 3.25c.217.366.85.236.891-.19.058-.316-.234-.52-.51-.575-.344.072-.593.451-.381.766zm-10.611-.273c.03.359.428.67.77.443.381-.2.252-.845-.183-.875-.299-.065-.503.183-.587.432zm5.12.287c-.153.373.213.824.618.777.218.005.387-.148.518-.3.025-.103.051-.207.08-.31-.054-.198-.116-.43-.328-.52-.32-.196-.805-.016-.889.353z"/></svg>
